src/epub/images/titlepage.svg

<?xml version="1.0" encoding="UTF-8"?>
<svg xmlns="http://www.w3.org/2000/svg" xmlns:se="https://standardebooks.org/vocab/1.0" version="1.1" viewBox="0 0 1400 340" se:generated-from="dbbdf49a83a0cc08a1ef3c8c023fec13e38e7852">
	<path d="m 348.4766,52.807016 -44.63158,0 0,77.192984 17.59065,0 0,-30.970761 24.98245,0 0,-15.438597 -24.98245,0 0,-15.345029 27.04093,0 0,-15.438597 z"/>
	<path d="m 361.8421,52.807016 0,77.192984 17.59064,0 0,-30.502925 L 403.01169,130 l 22.36258,0 -26.5731,-31.906433 c 9.45029,-2.994152 15.81286,-10.760234 15.81286,-22.362574 0,-15.157895 -10.8538,-22.923977 -25.16959,-22.923977 l -27.60234,0 z m 17.59064,34.245615 0,-20.210527 2.05848,0 c 6.64328,0 14.5965,0.467836 14.5965,10.105263 0,9.637428 -7.95322,10.105264 -14.5965,10.105264 l -2.05848,0 z"/>
	<path d="m 473.1155,52.807016 -16.2807,0 L 425.6769,130 l 18.90059,0 5.7076,-15.4386 29.38012,0 5.7076,15.4386 18.90058,0 -31.15789,-77.192984 z m 0.5614,46.31579 -17.40351,0 8.60819,-22.45614 0.18713,0 8.60819,22.45614 z"/>
	<path d="m 529.78363,82.093566 0.18713,0 L 560.66082,130 l 17.59064,0 0,-77.192984 -17.59064,0 0,47.906434 -0.18713,0 -30.69006,-47.906434 -17.59065,0 0,77.192984 17.59065,0 0,-47.906434 z"/>
	<path d="m 664.76463,130 -35.92982,-40.608188 31.06433,-36.584796 -21.33334,0 -26.47953,31.532164 0,-31.532164 -17.59064,0 0,77.192984 17.59064,0 0,-32.748539 L 640.53072,130 l 24.23391,0 z"/>
	<path d="m 717.30701,52.807016 -44.16374,0 0,77.192984 44.16374,0 0,-15.4386 -26.5731,0 0,-15.532161 25.4503,0 0,-15.438597 -25.4503,0 0,-15.345029 26.5731,0 0,-15.438597 z"/>
	<path d="m 750.01025,82.093566 0.18714,0 L 780.88744,130 l 17.59065,0 0,-77.192984 -17.59065,0 0,47.906434 -0.18713,0 -30.69006,-47.906434 -17.59064,0 0,77.192984 17.59064,0 0,-47.906434 z"/>
	<path d="m 841.33918,51.403507 c -12.44444,0 -25.16959,9.169591 -25.16959,23.578948 0,8.046784 5.4269,15.251462 14.69006,19.836258 9.16959,4.584795 17.40351,7.111107 17.40351,12.725147 0,7.20468 -7.29825,7.57895 -11.13451,7.57895 -8.60818,0 -18.90058,-8.70176 -18.90058,-8.70176 l -8.79532,14.78363 c 0,0 10.94737,10.19883 29.00585,10.19883 15.06432,0 29.09941,-6.45614 29.09941,-24.88889 0,-10.105264 -9.45029,-17.40351 -18.05848,-21.052632 -8.79532,-3.742691 -16.09357,-6.83041 -16.09357,-11.134504 0,-4.210526 3.18129,-6.923976 9.1696,-6.923976 7.95321,0 15.62573,5.333333 15.62573,5.333333 l 7.11111,-14.035088 c 0,0 -9.91813,-7.298246 -23.95322,-7.298246 z"/>
	<path d="m 871.32602,68.245613 18.33918,0 0,61.754387 17.59065,0 0,-61.754387 18.33918,0 0,-15.438597 -54.26901,0 0,15.438597 z"/>
	<path d="m 981.09361,52.807016 -44.16375,0 0,77.192984 44.16375,0 0,-15.4386 -26.5731,0 0,-15.532161 25.45029,0 0,-15.438597 -25.45029,0 0,-15.345029 26.5731,0 0,-15.438597 z"/>
	<path d="m 1013.7968,52.807016 -17.59063,0 0,77.192984 17.59063,0 0,-77.192984 z"/>
	<path d="m 1047.6711,82.093566 0.1871,0 30.6901,47.906434 17.5906,0 0,-77.192984 -17.5906,0 0,47.906434 -0.1872,0 -30.69,-47.906434 -17.5907,0 0,77.192984 17.5907,0 0,-47.906434 z"/>
	<path d="m 450.72149,290 13.19299,0 -5.19299,-57.89474 -14.03508,0 -12.84211,33.40351 -12.8421,-33.40351 -14.03509,0 -5.19298,57.89474 13.19298,0 2.73684,-34.31579 0.35088,0 11.85965,33.96491 7.85965,0 11.85964,-33.96491 0.35088,0 L 450.72149,290 Z"/>
	<path d="m 503.60307,232.10526 -12.21053,0 L 468.02412,290 l 14.17544,0 4.2807,-11.57895 22.03509,0 4.2807,11.57895 14.17544,0 -23.36842,-57.89474 z m 0.42105,34.73685 -13.05263,0 6.45614,-16.84211 0.14035,0 6.45614,16.84211 z"/>
	<path d="m 534.16119,232.10526 0,57.89474 13.19298,0 0,-22.87719 17.68421,22.87719 16.77193,0 -19.92982,-23.92982 c 7.08772,-2.24562 11.85965,-8.07018 11.85965,-16.77193 0,-11.36842 -8.14035,-17.19299 -18.87719,-17.19299 l -20.70176,0 z m 13.19298,25.68421 0,-15.15789 1.54386,0 c 4.98246,0 10.94737,0.35088 10.94737,7.57895 0,7.22807 -5.96491,7.57894 -10.94737,7.57894 l -1.54386,0 z"/>
	<path d="m 576.84211,232.10526 21.33333,31.92983 0,25.96491 13.19298,0 0,-25.96491 21.33333,-31.92983 -15.85964,0 -12.07018,18.52632 -12.07017,-18.52632 -15.85965,0 z"/>
	<path d="m 683.98137,231.05263 c -9.33333,0 -18.87719,6.8772 -18.87719,17.68421 0,6.03509 4.07017,11.4386 11.01754,14.8772 6.8772,3.43859 13.05263,5.33333 13.05263,9.54385 0,5.40351 -5.47368,5.68422 -8.35087,5.68422 -6.45614,0 -14.17544,-6.52632 -14.17544,-6.52632 l -6.59649,11.08772 c 0,0 8.21052,7.64912 21.75438,7.64912 11.29825,0 21.82456,-4.8421 21.82456,-18.66666 0,-7.57895 -7.08771,-13.05264 -13.54386,-15.78948 -6.59649,-2.80702 -12.07017,-5.12281 -12.07017,-8.35088 0,-3.15789 2.38596,-5.19298 6.87719,-5.19298 5.96491,0 11.7193,4 11.7193,4 l 5.33333,-10.52631 c 0,0 -7.43859,-5.47369 -17.96491,-5.47369 z"/>
	<path d="m 727.99013,266.77193 18.66667,0 0,23.22807 13.19298,0 0,-57.89474 -13.19298,0 0,23.08772 -18.66667,0 0,-23.08772 -13.19298,0 0,57.89474 13.19298,0 0,-23.22807 z"/>
	<path d="m 806.3739,232.10526 -33.1228,0 0,57.89474 33.1228,0 0,-11.57895 -19.92982,0 0,-11.64912 19.08772,0 0,-11.57895 -19.08772,0 0,-11.50877 19.92982,0 0,-11.57895 z"/>
	<path d="m 832.15132,232.10526 -13.19298,0 0,57.89474 33.12281,0 0,-11.57895 -19.92983,0 0,-46.31579 z"/>
	<path d="m 876.76207,232.10526 -13.19298,0 0,57.89474 33.12281,0 0,-11.57895 -19.92983,0 0,-46.31579 z"/>
	<path d="m 941.30264,232.10526 -33.1228,0 0,57.89474 33.1228,0 0,-11.57895 -19.92982,0 0,-11.64912 19.08772,0 0,-11.57895 -19.08772,0 0,-11.50877 19.92982,0 0,-11.57895 z"/>
	<path d="m 947.57126,232.10526 21.33334,31.92983 0,25.96491 13.19298,0 0,-25.96491 21.33332,-31.92983 -15.85964,0 -12.07017,18.52632 -12.07018,-18.52632 -15.85965,0 z"/>
</svg>

<?xml version="1.0" encoding="UTF-8"?>
<svg xmlns="http://www.w3.org/2000/svg" xmlns:se="https://standardebooks.org/vocab/1.0" version="1.1" viewBox="0 0 1400 340" se:generated-from="5f5837e69b4cce8a12298a1a8e3d1430751dbefd">
	<path d="M 348.4766,52.807016 303.84502,52.807016 303.84502,130 321.43567,130 321.43567,99.029239 346.41812,99.029239 346.41812,83.590642 321.43567,83.590642 321.43567,68.245613 348.4766,68.245613 348.4766,52.807016 Z"/>
	<path d="M 361.8421,52.807016 361.8421,130 379.43274,130 379.43274,99.497075 403.01169,130 425.37427,130 398.80117,98.093567 C 408.25146,95.099415 414.61403,87.333333 414.61403,75.730993 414.61403,60.573098 403.76023,52.807016 389.44444,52.807016 L 361.8421,52.807016 Z M 379.43274,87.052631 379.43274,66.842104 381.49122,66.842104 C 388.1345,66.842104 396.08772,67.30994 396.08772,76.947367 396.08772,86.584795 388.1345,87.052631 381.49122,87.052631 L 379.43274,87.052631 Z"/>
	<path d="M 473.1155,52.807016 456.8348,52.807016 425.6769,130 444.57749,130 450.28509,114.5614 479.66521,114.5614 485.37281,130 504.27339,130 473.1155,52.807016 Z M 473.6769,99.122806 456.27339,99.122806 464.88158,76.666666 465.06871,76.666666 473.6769,99.122806 Z"/>
	<path d="M 529.78363,82.093566 529.97076,82.093566 560.66082,130 578.25146,130 578.25146,52.807016 560.66082,52.807016 560.66082,100.71345 560.47369,100.71345 529.78363,52.807016 512.19298,52.807016 512.19298,130 529.78363,130 529.78363,82.093566 Z"/>
	<path d="M 664.76463,130 628.83481,89.391812 659.89914,52.807016 638.5658,52.807016 612.08627,84.33918 612.08627,52.807016 594.49563,52.807016 594.49563,130 612.08627,130 612.08627,97.251461 640.53072,130 664.76463,130 Z"/>
	<path d="M 717.30701,52.807016 673.14327,52.807016 673.14327,130 717.30701,130 717.30701,114.5614 690.73391,114.5614 690.73391,99.029239 716.18421,99.029239 716.18421,83.590642 690.73391,83.590642 690.73391,68.245613 717.30701,68.245613 717.30701,52.807016 Z"/>
	<path d="M 750.01025,82.093566 750.19739,82.093566 780.88744,130 798.47809,130 798.47809,52.807016 780.88744,52.807016 780.88744,100.71345 780.70031,100.71345 750.01025,52.807016 732.41961,52.807016 732.41961,130 750.01025,130 750.01025,82.093566 Z"/>
	<path d="M 841.33918,51.403507 C 828.89474,51.403507 816.16959,60.573098 816.16959,74.982455 816.16959,83.029239 821.59649,90.233917 830.85965,94.818713 840.02924,99.403508 848.26316,101.92982 848.26316,107.54386 848.26316,114.74854 840.96491,115.12281 837.12865,115.12281 828.52047,115.12281 818.22807,106.42105 818.22807,106.42105 L 809.43275,121.20468 C 809.43275,121.20468 820.38012,131.40351 838.4386,131.40351 853.50292,131.40351 867.53801,124.94737 867.53801,106.51462 867.53801,96.409356 858.08772,89.11111 849.47953,85.461988 840.68421,81.719297 833.38596,78.631578 833.38596,74.327484 833.38596,70.116958 836.56725,67.403508 842.55556,67.403508 850.50877,67.403508 858.18129,72.736841 858.18129,72.736841 L 865.2924,58.701753 C 865.2924,58.701753 855.37427,51.403507 841.33918,51.403507 Z"/>
	<path d="M 871.32602,68.245613 889.6652,68.245613 889.6652,130 907.25585,130 907.25585,68.245613 925.59503,68.245613 925.59503,52.807016 871.32602,52.807016 871.32602,68.245613 Z"/>
	<path d="M 981.09361,52.807016 936.92986,52.807016 936.92986,130 981.09361,130 981.09361,114.5614 954.52051,114.5614 954.52051,99.029239 979.9708,99.029239 979.9708,83.590642 954.52051,83.590642 954.52051,68.245613 981.09361,68.245613 981.09361,52.807016 Z"/>
	<path d="M 1013.7968,52.807016 996.20617,52.807016 996.20617,130 1013.7968,130 1013.7968,52.807016 Z"/>
	<path d="M 1047.6711,82.093566 1047.8582,82.093566 1078.5483,130 1096.1389,130 1096.1389,52.807016 1078.5483,52.807016 1078.5483,100.71345 1078.3611,100.71345 1047.6711,52.807016 1030.0804,52.807016 1030.0804,130 1047.6711,130 1047.6711,82.093566 Z"/>
	<path d="M 450.72149,290 463.91448,290 458.72149,232.10526 444.68641,232.10526 431.8443,265.50877 419.0022,232.10526 404.96711,232.10526 399.77413,290 412.96711,290 415.70395,255.68421 416.05483,255.68421 427.91448,289.64912 435.77413,289.64912 447.63377,255.68421 447.98465,255.68421 450.72149,290 Z"/>
	<path d="M 503.60307,232.10526 491.39254,232.10526 468.02412,290 482.19956,290 486.48026,278.42105 508.51535,278.42105 512.79605,290 526.97149,290 503.60307,232.10526 Z M 504.02412,266.84211 490.97149,266.84211 497.42763,250 497.56798,250 504.02412,266.84211 Z"/>
	<path d="M 534.16119,232.10526 534.16119,290 547.35417,290 547.35417,267.12281 565.03838,290 581.81031,290 561.88049,266.07018 C 568.96821,263.82456 573.74014,258 573.74014,249.29825 573.74014,237.92983 565.59979,232.10526 554.86295,232.10526 L 534.16119,232.10526 Z M 547.35417,257.78947 547.35417,242.63158 548.89803,242.63158 C 553.88049,242.63158 559.8454,242.98246 559.8454,250.21053 559.8454,257.4386 553.88049,257.78947 548.89803,257.78947 L 547.35417,257.78947 Z"/>
	<path d="M 576.84211,232.10526 598.17544,264.03509 598.17544,290 611.36842,290 611.36842,264.03509 632.70175,232.10526 616.84211,232.10526 604.77193,250.63158 592.70176,232.10526 576.84211,232.10526 Z"/>
	<path d="M 683.98137,231.05263 C 674.64804,231.05263 665.10418,237.92983 665.10418,248.73684 665.10418,254.77193 669.17435,260.17544 676.12172,263.61404 682.99892,267.05263 689.17435,268.94737 689.17435,273.15789 689.17435,278.5614 683.70067,278.84211 680.82348,278.84211 674.36734,278.84211 666.64804,272.31579 666.64804,272.31579 L 660.05155,283.40351 C 660.05155,283.40351 668.26207,291.05263 681.80593,291.05263 693.10418,291.05263 703.63049,286.21053 703.63049,272.38597 703.63049,264.80702 696.54278,259.33333 690.08663,256.59649 683.49014,253.78947 678.01646,251.47368 678.01646,248.24561 678.01646,245.08772 680.40242,243.05263 684.89365,243.05263 690.85856,243.05263 696.61295,247.05263 696.61295,247.05263 L 701.94628,236.52632 C 701.94628,236.52632 694.50769,231.05263 683.98137,231.05263 Z"/>
	<path d="M 727.99013,266.77193 746.6568,266.77193 746.6568,290 759.84978,290 759.84978,232.10526 746.6568,232.10526 746.6568,255.19298 727.99013,255.19298 727.99013,232.10526 714.79715,232.10526 714.79715,290 727.99013,290 727.99013,266.77193 Z"/>
	<path d="M 806.3739,232.10526 773.2511,232.10526 773.2511,290 806.3739,290 806.3739,278.42105 786.44408,278.42105 786.44408,266.77193 805.5318,266.77193 805.5318,255.19298 786.44408,255.19298 786.44408,243.68421 806.3739,243.68421 806.3739,232.10526 Z"/>
	<path d="M 832.15132,232.10526 818.95834,232.10526 818.95834,290 852.08115,290 852.08115,278.42105 832.15132,278.42105 832.15132,232.10526 Z"/>
	<path d="M 876.76207,232.10526 863.56909,232.10526 863.56909,290 896.6919,290 896.6919,278.42105 876.76207,278.42105 876.76207,232.10526 Z"/>
	<path d="M 941.30264,232.10526 908.17984,232.10526 908.17984,290 941.30264,290 941.30264,278.42105 921.37282,278.42105 921.37282,266.77193 940.46054,266.77193 940.46054,255.19298 921.37282,255.19298 921.37282,243.68421 941.30264,243.68421 941.30264,232.10526 Z"/>
	<path d="M 947.57126,232.10526 968.9046,264.03509 968.9046,290 982.09758,290 982.09758,264.03509 1003.4309,232.10526 987.57126,232.10526 975.50109,250.63158 963.43091,232.10526 947.57126,232.10526 Z"/>
</svg>
